Obsidian-Green/places/16/user-desktop.svg

<?xml version="1.0" encoding="UTF-8" standalone="no"?>
<svg
   xmlns:dc="http://purl.org/dc/elements/1.1/"
   xmlns:cc="http://creativecommons.org/ns#"
   xmlns:rdf="http://www.w3.org/1999/02/22-rdf-syntax-ns#"
   xmlns:svg="http://www.w3.org/2000/svg"
   xmlns="http://www.w3.org/2000/svg"
   xmlns:xlink="http://www.w3.org/1999/xlink"
   xmlns:sodipodi="http://sodipodi.sourceforge.net/DTD/sodipodi-0.dtd"
   xmlns:inkscape="http://www.inkscape.org/namespaces/inkscape"
   id="svg3342"
   height="16"
   width="16"
   version="1.0"
   sodipodi:docname="user-desktop.svg"
   inkscape:version="0.92.1 r">
  <sodipodi:namedview
     pagecolor="#ffffff"
     bordercolor="#666666"
     borderopacity="1"
     objecttolerance="10"
     gridtolerance="10"
     guidetolerance="10"
     inkscape:pageopacity="0"
     inkscape:pageshadow="2"
     inkscape:window-width="1920"
     inkscape:window-height="1011"
     id="namedview47"
     showgrid="false"
     inkscape:zoom="1.3037281"
     inkscape:cx="15.583321"
     inkscape:cy="-34.408511"
     inkscape:window-x="0"
     inkscape:window-y="32"
     inkscape:window-maximized="1"
     inkscape:current-layer="svg3342" />
  <metadata
     id="metadata37">
    <rdf:RDF>
      <cc:Work
         rdf:about="">
        <dc:format>image/svg+xml</dc:format>
        <dc:type
           rdf:resource="http://purl.org/dc/dcmitype/StillImage" />
        <dc:title />
      </cc:Work>
    </rdf:RDF>
  </metadata>
  <defs
     id="defs3344">
    <linearGradient
       id="linearGradient4237">
      <stop
         offset="0"
         style="stop-color:#21e992;stop-opacity:1"
         id="stop4239" />
      <stop
         offset="1"
         style="stop-color:#00927f;stop-opacity:1"
         id="stop4241" />
    </linearGradient>
    <linearGradient
       id="linearGradient4177">
      <stop
         id="stop4179"
         style="stop-color:#21e992;stop-opacity:1"
         offset="0" />
      <stop
         id="stop4181"
         style="stop-color:#21e992;stop-opacity:0.94117647"
         offset="1" />
    </linearGradient>
    <linearGradient
       id="linearGradient4171">
      <stop
         id="stop4173"
         style="stop-color:#20b7ff;stop-opacity:1"
         offset="0" />
      <stop
         id="stop4175"
         style="stop-color:#0073b9;stop-opacity:1"
         offset="1" />
    </linearGradient>
    <linearGradient
       id="linearGradient3332-412-419-652-471-761-410-156-661-505">
      <stop
         offset="0"
         style="stop-color:#434343;stop-opacity:1;"
         id="stop8032" />
      <stop
         offset="1"
         style="stop-color:#8a8a8a;stop-opacity:1;"
         id="stop8034" />
    </linearGradient>
    <linearGradient
       id="linearGradient3321">
      <stop
         offset="0"
         style="stop-color:#aacb7d;stop-opacity:1;"
         id="stop3323" />
      <stop
         offset="1"
         style="stop-color:#709937;stop-opacity:1;"
         id="stop3329" />
    </linearGradient>
    <linearGradient
       id="linearGradient2238">
      <stop
         offset="0"
         style="stop-color:#ffffff;stop-opacity:1"
         id="stop2240" />
      <stop
         offset="1"
         style="stop-color:#ffffff;stop-opacity:0"
         id="stop2242" />
    </linearGradient>
    <linearGradient
       id="linearGradient3282">
      <stop
         offset="0"
         style="stop-color:#000000;stop-opacity:1"
         id="stop3284" />
      <stop
         offset="1"
         style="stop-color:#000000;stop-opacity:0"
         id="stop3286" />
    </linearGradient>
    <linearGradient
       id="linearGradient3958">
      <stop
         offset="0"
         style="stop-color:#616668;stop-opacity:1"
         id="stop3960" />
      <stop
         offset="1"
         style="stop-color:#4d4d4d;stop-opacity:1"
         id="stop3962" />
    </linearGradient>
    <linearGradient
       id="linearGradient2446-733-45">
      <stop
         offset="0"
         style="stop-color:#fafafa;stop-opacity:1"
         id="stop3793" />
      <stop
         offset="1"
         style="stop-color:#c5c5c5;stop-opacity:1"
         id="stop3795" />
    </linearGradient>
    <linearGradient
       y2="14"
       x2="16.91585"
       y1="7.0006418"
       x1="16.91585"
       gradientTransform="matrix(0.3333333,0,0,0.3333689,7.1074495e-4,-1.0004803)"
       gradientUnits="userSpaceOnUse"
       id="linearGradient2416"
       xlink:href="#linearGradient3958" />
    <linearGradient
       y2="13.523027"
       x2="24.682861"
       y1="9.2416716"
       x1="24.682861"
       gradientTransform="matrix(0.3042808,0,0,0.2340042,0.6993307,2.8374077)"
       gradientUnits="userSpaceOnUse"
       id="linearGradient2419"
       xlink:href="#linearGradient3282" />
    <linearGradient
       y2="44.295784"
       x2="24.675762"
       y1="1.6925697"
       x1="24.675762"
       gradientTransform="matrix(0.2885901,0,0,0.281741,1.0734846,1.5216393)"
       gradientUnits="userSpaceOnUse"
       id="linearGradient2422"
       xlink:href="#linearGradient4177" />
    <radialGradient
       r="23"
       fy="-2.0644982"
       fx="26.616697"
       cy="-2.0644982"
       cx="26.616697"
       gradientTransform="matrix(0,-0.3743803,0.4655272,0,11.988014,19.393247)"
       gradientUnits="userSpaceOnUse"
       id="radialGradient2425"
       xlink:href="#linearGradient2867-449-88-871-390-598-476-591-434-148-895-534-212-357-729" />
    <linearGradient
       y2="-11.86743"
       x2="10.014208"
       y1="44.960102"
       x1="10.014208"
       gradientTransform="matrix(0.3191203,0,0,0.3174019,0.3411154,0.3333387)"
       gradientUnits="userSpaceOnUse"
       id="linearGradient2427"
       xlink:href="#linearGradient3332-412-419-652-471-761-410-156-661-505" />
    <radialGradient
       gradientTransform="matrix(-3.438708e-8,-2.0049302,2.6407404,0,-35.172989,83.43564)"
       gradientUnits="userSpaceOnUse"
       xlink:href="#linearGradient4209"
       id="radialGradient3322-5"
       fy="-2.0644982"
       fx="26.616697"
       r="23"
       cy="-2.0644982"
       cx="26.616697" />
    <linearGradient
       id="linearGradient4209">
      <stop
         id="stop4211"
         style="stop-color:#40ecf2;stop-opacity:1"
         offset="0" />
      <stop
         id="stop4213"
         style="stop-color:#0074b6;stop-opacity:1"
         offset="1" />
    </linearGradient>
    <radialGradient
       gradientTransform="matrix(-3.438708e-8,-2.0049302,2.6407404,0,83.978273,63.968129)"
       gradientUnits="userSpaceOnUse"
       xlink:href="#linearGradient2867-449-88-871-390-598-476-591-434-148-895-534-212-357-729"
       id="radialGradient3322-5-3"
       fy="-2.0644982"
       fx="26.616697"
       r="23"
       cy="-2.0644982"
       cx="26.616697" />
    <linearGradient
       id="linearGradient2867-449-88-871-390-598-476-591-434-148-895-534-212-357-729">
      <stop
         offset="0"
         style="stop-color:#20ee8f;stop-opacity:1"
         id="stop8022" />
      <stop
         offset="1"
         style="stop-color:#00927c;stop-opacity:1"
         id="stop8028" />
    </linearGradient>
  </defs>
  <rect
     width="14.997868"
     height="12.997867"
     rx="1.5284374"
     ry="1.5617938"
     x="0.50106621"
     y="1.5010664"
     id="rect1316"
     style="display:inline;overflow:visible;visibility:visible;fill:url(#radialGradient2425);fill-opacity:1;fill-rule:evenodd;stroke:url(#linearGradient2427);stroke-width:1.00213289;stroke-linecap:round;stroke-linejoin:round;stroke-miterlimit:4;stroke-dasharray:none;stroke-dashoffset:0;stroke-opacity:1;marker:none;marker-start:none;marker-mid:none;marker-end:none;enable-background:accumulate" />
  <rect
     width="12.997868"
     height="10.997867"
     rx="0.53651923"
     ry="0.53651923"
     x="1.5010662"
     y="2.5010664"
     id="rect2232"
     style="opacity:0.4;fill:none;stroke:url(#linearGradient2422);stroke-width:1.00213301;stroke-linecap:round;stroke-linejoin:round;stroke-miterlimit:4;stroke-dasharray:none;stroke-dashoffset:0;stroke-opacity:1" />
  <rect
     width="14"
     height="1"
     rx="0"
     ry="0"
     x="1"
     y="5"
     id="rect1436"
     style="opacity:0.2;fill:url(#linearGradient2419);fill-opacity:1;fill-rule:evenodd;stroke:none;stroke-width:1.00000012;stroke-linecap:butt;stroke-linejoin:miter;marker:none;marker-start:none;marker-mid:none;marker-end:none;stroke-miterlimit:4;stroke-dasharray:none;stroke-dashoffset:0;stroke-opacity:1;visibility:visible;display:inline;overflow:visible" />
  <path
     d="M 1.500711,1.5000001 C 1.500711,1.5000001 14.612789,1.5028629 14.612789,1.5028629 C 15.13443,1.5028629 15.500711,1.9233048 15.500711,2.3885518 C 15.500711,2.3885518 15.500711,4.5 15.500711,4.5 C 15.500711,4.5 0.50071114,4.5 0.50071114,4.5 C 0.50071114,4.5 0.50071114,2.3885518 0.50071114,2.3885518 C 0.50071114,1.8926584 0.90363933,1.5000001 1.500711,1.5000001 z"
     id="rect2311"
     style="fill:#000000;fill-opacity:1;fill-rule:evenodd;stroke:url(#linearGradient2416);stroke-width:1;stroke-linecap:butt;stroke-linejoin:miter;marker:none;marker-start:none;marker-mid:none;marker-end:none;stroke-miterlimit:4;stroke-dasharray:none;stroke-dashoffset:0;stroke-opacity:1;visibility:visible;display:inline;overflow:visible" />
  <rect
     width="9"
     height="2.9999998"
     rx="0"
     ry="0"
     x="3.5"
     y="11.5"
     id="rect9439"
     style="opacity:0.5;fill:#1a1a1a;fill-opacity:1;fill-rule:nonzero;stroke:#000000;stroke-width:1.00000024;stroke-linecap:butt;stroke-linejoin:miter;marker:none;marker-start:none;marker-mid:none;marker-end:none;stroke-miterlimit:4;stroke-dasharray:none;stroke-dashoffset:0;stroke-opacity:1;visibility:visible;display:inline;overflow:visible;enable-background:accumulate" />
  <path
     id="rect2429"
     d="M 2.5,15 C 2.5,15 2.5,10.500001 2.5,10.500001 C 2.5,10.500001 13.5,10.500001 13.5,10.500001 C 13.5,10.500001 13.5,15 13.5,15"
     style="opacity:0.2;fill:#1a1a1a;fill-opacity:1;fill-rule:nonzero;stroke:#ffffff;stroke-width:1.00000024;stroke-linecap:butt;stroke-linejoin:miter;marker:none;marker-start:none;marker-mid:none;marker-end:none;stroke-miterlimit:4;stroke-dasharray:none;stroke-dashoffset:0;stroke-opacity:1;visibility:visible;display:inline;overflow:visible;enable-background:accumulate" />
</svg>

<svg height="16" width="16" xmlns="http://www.w3.org/2000/svg" xmlns:xlink="http://www.w3.org/1999/xlink"><linearGradient id="a" gradientTransform="matrix(.3333333 0 0 .3333689 .000711 -1.00048)" gradientUnits="userSpaceOnUse" x1="16.91585" x2="16.91585" y1="7.000642" y2="14"><stop offset="0" stop-color="#616668"/><stop offset="1" stop-color="#4d4d4d"/></linearGradient><linearGradient id="b" gradientTransform="matrix(.3042808 0 0 .2340042 .699331 2.837408)" gradientUnits="userSpaceOnUse" x1="24.682861" x2="24.682861" y1="9.241672" y2="13.523027"><stop offset="0"/><stop offset="1" stop-opacity="0"/></linearGradient><linearGradient id="c" gradientTransform="matrix(.2885901 0 0 .281741 1.073485 1.521639)" gradientUnits="userSpaceOnUse" x1="24.675762" x2="24.675762" y1="1.69257" y2="44.295784"><stop offset="0" stop-color="#21e992"/><stop offset="1" stop-color="#21e992" stop-opacity=".941176"/></linearGradient><radialGradient id="d" cx="26.616697" cy="-2.064498" gradientTransform="matrix(0 -.3743803 .4655272 0 11.988014 19.393247)" gradientUnits="userSpaceOnUse" r="23"><stop offset="0" stop-color="#20ee8f"/><stop offset="1" stop-color="#00927c"/></radialGradient><linearGradient id="e" gradientTransform="matrix(.3191203 0 0 .3174019 .341115 .333339)" gradientUnits="userSpaceOnUse" x1="10.014208" x2="10.014208" y1="44.960102" y2="-11.86743"><stop offset="0" stop-color="#434343"/><stop offset="1" stop-color="#8a8a8a"/></linearGradient><rect height="12.997867" rx="1.528437" ry="1.561794" style="fill-rule:evenodd;stroke-width:1.002133;stroke-linecap:round;stroke-linejoin:round;fill:url(#d);stroke:url(#e)" width="14.997868" x=".501066" y="1.501066"/><rect height="10.997867" rx=".536519" style="opacity:.4;fill:none;stroke-width:1.002133;stroke-linecap:round;stroke-linejoin:round;stroke:url(#c)" width="12.997868" x="1.501066" y="2.501066"/><path d="m1 5h14v1h-14z" fill="url(#b)" fill-rule="evenodd" opacity=".2"/><path d="m1.500711 1.5000001s13.112078.0028628 13.112078.0028628c.521641 0 .887922.4204419.887922.8856889v2.1114482h-14.99999986v-2.1114482c0-.4958934.40292819-.8885517.99999986-.8885517z" fill-rule="evenodd" stroke="url(#a)"/><g fill="#1a1a1a"><path d="m3.5 11.5h9v3h-9z" opacity=".5" stroke="#000"/><path d="m2.5 15v-4.499999h11v4.499999" opacity=".2" stroke="#fff"/></g></svg>
